!!!SOCIAL_FUNCTION:	dance songs
!!!PDT:	1943
!!!OTL: No_37_Dance_Song_of_the_Fraser_River_Indians_(a).krn
!!!REG: British Columbia
**kern	**kern
*staff2	*staff1
=1-	=1-
=	=
*clefF4	*clefF4
*k[f#c#]	*k[f#c#]
*M2/4	*M2/4
8GG/L	4..B\
8GG/J	.
8GG/L	.
8GG/J	.
.	16B\
=2	=2
8GG/L	4..B\
8GG/J	.
4r	.
.	16B\
=3	=3
2r	8.c#\L
.	16B\Jk
.	8.A\L
.	16F#\Jk
=4	=4
2r	4F#\
.	8F#\
.	8r
=5	=5
2r	8.B\L
.	16A\Jk
.	8.B\L
.	16F#\Jk
=6	=6
2r	4.F#\
.	8F#\
=7	=7
2r	8.B\L
.	16F#\Jk
.	4E\
=8	=8
2r	8.C#/L
.	16C#/Jk
.	8C#/
.	8r
=9	=9
2r	8.F#\L
.	16E\Jk
.	8.F#/L
.	16C#/Jk
=10	=10
2r	8C#/L
.	[8BB/J
.	4BB/]
=11	=11
2r	8C#/L
.	8E/J
.	4C#/
=12	=12
2r	4.BB/
.	8r
=13	=13
2r	2BB/
=14	=14
2r	4BB/
.	4r
==:|!	==:|!
*-	*-
